build/img/decorativeLine2.svg

<svg width="873" height="973" fill="none" xmlns="http://www.w3.org/2000/svg"><path d="M-339 98.282C-132.677 24.58 43.217-33.249 118.76 24.888c75.543 58.136 13.753 172.663 59.307 219.214 45.555 46.552 108.394 29.079 161.516 6.442 53.122-22.637 158.005-66.579 213.21-10.165 55.206 56.414 1.923 162.616-17.867 209.784-19.79 47.169-52.828 153.638-1.097 206.502 51.732 52.863 106.506 30.153 150.571 85.113s1.067 131.79 52.026 183.864c50.959 52.075 87.972-2.68 135.456 45.844" stroke="url(#paint0_linear)" stroke-width="2" stroke-linecap="round" stroke-linejoin="round"/><defs><linearGradient id="paint0_linear" x1="-339" y1="98.282" x2="689.831" y2="1149.64" gradientUnits="userSpaceOnUse"><stop stop-color="#FF59F8"/><stop offset=".198" stop-color="#AE72FF"/><stop offset=".406" stop-color="#90E9ED"/><stop offset=".62" stop-color="#5CD167"/><stop offset=".825" stop-color="#FE0"/></linearGradient></defs></svg>

<svg width="873" height="973" viewBox="0 0 873 973" fill="none" xmlns="http://www.w3.org/2000/svg">
<path d="M-339 98.2823C-132.677 24.5789 43.2174 -33.249 118.76 24.8875C194.303 83.0239 132.513 197.551 178.067 244.102C223.622 290.654 286.461 273.181 339.583 250.544C392.705 227.907 497.588 183.965 552.793 240.379C607.999 296.793 554.716 402.995 534.926 450.163C515.136 497.332 482.098 603.801 533.829 656.665C585.561 709.528 640.335 686.818 684.4 741.778C728.465 796.738 685.467 873.568 736.426 925.642C787.385 977.717 824.398 922.962 871.882 971.486" stroke="url(#paint0_linear)" stroke-width="2" stroke-linecap="round" stroke-linejoin="round"/>
<defs>
<linearGradient id="paint0_linear" x1="-339" y1="98.2823" x2="689.831" y2="1149.64" gradientUnits="userSpaceOnUse">
<stop stop-color="#FF59F8"/>
<stop offset="0.197917" stop-color="#AE72FF"/>
<stop offset="0.40625" stop-color="#90E9ED"/>
<stop offset="0.619792" stop-color="#5CD167"/>
<stop offset="0.825321" stop-color="#FFEE00"/>
</linearGradient>
</defs>
</svg>
